!!!!SEGMENT: pl-wn--sd-xvi-o-259_anonim--kancjonal-zamoyskich-piesn-o-przykazaniu-bozym-dziesiecioro-przykazanie-dal-nam-pan-bog-na-chowanie.krn
!!!cenid: 15xx:816
!!!COM: Anonim
!!!COM-rismID: pe30004985
!!!CDT:
!!!CNT:
!!!GTL: Kancjonał Zamoyskich
!!!OTL: Pieśń o przykazaniu Bożym/Dziesięcioro przykazanie dał nam pan Bóg na chowanie
!!!PDT: 1558
!!!AGN:
!!!SMS-siglum: PL-Wn
!!!SMS-shelfmark: SD XVI.O.259
!!!SMS-shelfwork: G
!!!SMS-variant:
!!!SMS-altvar:
!!!NIFC-rismSourceID: 990072140
!!!NIFC-rismChildID: 990072140
!!!NIFC-islandoraID: none
!!!URL-pdf-islandora:
!!!URL-scan: https://polona2.pl/item/piesn-o-przikazaniu-bozym,MTE3MTIxNw/3 @EN{Scan on Polona} @PL{Skany w portalu Polona}
!!!IIIF: https://polona2.pl/iiif/item/MTE3MTIxNw/manifest.json
!!!ONB-nifc: UWAGA: proszę zapisywać tylko teksty występujące bezpośrednio pod nutami
!!!AIN: 1 alto 1 bass 1 soprn 1 tenor
**kern	**text	**mod-text	**kern	**text	**mod-text	**kern	**text	**mod-text	**kern	**text	**mod-text
*part4	*part4	*part4	*part3	*part3	*part3	*part2	*part2	*part2	*part1	*part1	*part1
*staff4	*staff4	*staff4	*staff3	*staff3	*staff3	*staff2	*staff2	*staff2	*staff1	*staff1	*staff1
*I"BAS.	*	*	*I"TENOR.	*	*	*I"ALT.	*	*	*I"CANTVS.	*	*
*I'B	*	*	*I'T	*	*	*I'A	*	*	*I'S	*	*
*Ibass	*	*	*Itenor	*	*	*Ialto	*	*	*Isoprn	*	*
*ICvox	*	*	*ICvox	*	*	*ICvox	*	*	*ICvox	*	*
*mI"Basso	*	*	*mI"Tenore	*	*	*mI"Alto	*	*	*mI"Soprano	*	*
*clefF4	*	*	*clefC4	*	*	*clefC3	*	*	*clefC1	*	*
*	*	*	*mclefGv2	*	*	*mclefG2	*	*	*mclefG2	*	*
*k[]	*	*	*k[]	*	*	*k[]	*	*	*k[]	*	*
*a:	*	*	*a:	*	*	*a:	*	*	*a:	*	*
*M2/1	*	*	*M2/1	*	*	*M2/1	*	*	*M2/1	*	*
*met(C|)	*	*	*met(C|)	*	*	*met(C|)	*	*	*met(C|)	*	*
*mmet(c|)	*	*	*mmet(c|)	*	*	*mmet(c|)	*	*	*mmet(c|)	*	*
=1-	=1-	=1-	=1-	=1-	=1-	=1-	=1-	=1-	=1-	=1-	=1-
*xywh-#6:2804,342,2115,835	*	*	*xywh-#6:733,402,1965,766	*	*	*xywh-#5:2733,309,2115,841	*	*	*xywh-#5:739,383,1960,818	*	*
0E	Dzie-	Dzie-	0B	Dzie-	Dzie-	0e	Dzie-	Dzie-	0b	Dzie-	Dzie-
=2-	=2-	=2-	=2-	=2-	=2-	=2-	=2-	=2-	=2-	=2-	=2-
1A	-ſię-	-się-	1c	-ſię-	-się-	1e	-ſię-	-się-	1a	-ſię-	-się-
1A	-cio-	-cio-	1c	-cio-	-cio-	1f	-ćio-	-cio-	1a	-cio-	-cio-
=3-	=3-	=3-	=3-	=3-	=3-	=3-	=3-	=3-	=3-	=3-	=3-
1G	-ro	-ro	1d	-ro	-ro	1g	-ro	-ro	1b	-ro	-ro
1G	przy-	przy-	1B	przy-	przy-	1g	przy-	przy-	2g/	przy-	przy-
.	.	.	.	.	.	.	.	.	2.b\	-ka-	-ka-
=4-	=4-	=4-	=4-	=4-	=4-	=4-	=4-	=4-	=4-	=4-	=4-
1A	-ka-	-ka-	1c	-ka-	-ka-	1e	-ka-	-ka-	.	.	.
.	.	.	.	.	.	.	.	.	4a\	-za-	.
.	.	.	.	.	.	.	.	.	1a	-nie/	-za-
1E	-za-	-za-	1B	-za-	-za-	1e	-za-	-za-	.	.	.
.	.	.	.	.	.	.	.	.	2g/	dał	.
=5-	=5-	=5-	=5-	=5-	=5-	=5-	=5-	=5-	=5-	=5-	=5-
1AA	-nie/	-nie	1A	-nie/	-nie	1c	-nie/	-nie	1a	nam	-nie
!	!	!	!	!	!	!	!	!	!LO:SIC:v:t=custos g	!	!
1AA	dał	dał	1c	dał	dał	1e	dał	dał	1a	pan	dał
!	!	!	!	!	!	!	!	!	!LO:LB:g=original	!	!
=6-	=6-	=6-	=6-	=6-	=6-	=6-	=6-	=6-	=6-	=6-	=6-
*	*	*	*	*	*	*	*	*	*xywh-#5:727,1156,1989,507	*	*
1E	nam	nam	1B	nam	nam	1e	na(m)	nam	1g	Bog	nam
!LO:SIC:v:t=custos E	!	!	!LO:SIC:v:t=custos G	!	!	!	!	!	!	!	!
1AA	pan	Pan	1A	pan	Pan	1e	pan	pan	1cc	na	Pan
!LO:LB:g=original	!	!	!LO:LB:g=original	!	!	!	!	!	!	!	!
=7-	=7-	=7-	=7-	=7-	=7-	=7-	=7-	=7-	=7-	=7-	=7-
*xywh-#6:2788,1132,1879,507	*	*	*xywh-#6:808,1128,1891,484	*	*	*	*	*	*	*	*
!	!	!	!	!	!	!LO:SIC:v:t=custos d	!	!	!	!	!
2E\	bog	Bóg	1G	bog	Bóg	2e\	bog	Bóg	2b\	.	Bóg
!	!	!	!	!	!	!LO:LB:g=original	!	!	!	!	!
*	*	*	*	*	*	*xywh-#5:2721,1110,1960,495	*	*	*	*	*
2.G\	na	na	.	.	.	1d	na	na	2.b\	.	na
.	.	.	1B	na	na	.	.	.	.	.	.
4F\	.	.	.	.	.	.	.	.	4a\	cho-	.
4E\	.	.	.	.	.	2.g\	cho-	cho-	4g/	-wa-	.
4D\	.	.	.	.	.	.	.	.	4f/	.	.
=8-	=8-	=8-	=8-	=8-	=8-	=8-	=8-	=8-	=8-	=8-	=8-
2C/	.	.	1c	cho-	cho-	.	.	.	2e/	-nie/	cho-
.	.	.	.	.	.	4f\	.	.	.	.	.
2C/	cho-	cho-	.	.	.	2e\	.	.	1g	.	-wa-
1D	-wa-	-wa-	1A	-wa-	-wa-	1d	-wa-	-wa-	.	.	.
.	.	.	.	.	.	.	.	.	2f/	a-	.
=9-	=9-	=9-	=9-	=9-	=9-	=9-	=9-	=9-	=9-	=9-	=9-
0E	-nie/	-nie	0G	-nie/	-nie	0B	-nie/	-nie	0g	-by-	-nie
=10-	=10-	=10-	=10-	=10-	=10-	=10-	=10-	=10-	=10-	=10-	=10-
1AA	a-	a-	1A	a-	a-	1e	a-	a-	1cc	-ſmy	a-
!	!	!	!	!	!	!	!	!	!LO:SIC:v:t=custos b	!	!
1AA	-by-	-by-	1A	-by-	-by-	1e	-by-	-by-	1cc	.	-by-
!	!	!	!	!	!	!	!	!	!LO:LB:g=original	!	!
=11-	=11-	=11-	=11-	=11-	=11-	=11-	=11-	=11-	=11-	=11-	=11-
*	*	*	*	*	*	*	*	*	*xywh-#5:733,1629,1925,490	*	*
1E	-ſmy	-śmy	1G	-ſmy	-śmy	1e	-ſmy	-śmy	1b	go	-śmy
!LO:SIC:v:t=custos C	!	!	!	!	!	!	!	!	!	!	!
1F	go	go	1F	go	go	2.c/	go	go	1a	.	go
.	.	.	.	.	.	4d\	.	.	.	.	.
!LO:LB:g=original	!	!	!	!	!	!	!	!	!	!	!
=12-	=12-	=12-	=12-	=12-	=12-	=12-	=12-	=12-	=12-	=12-	=12-
*xywh-#6:2788,1605,1873,484	*	*	*	*	*	*	*	*	*	*	*
1C	w tym	w tym	1G	w tym	w tym	2e\	w tym	w tym	2.cc\	w tym	w tym
.	.	.	.	.	.	2e\	ucz-	ucz-	.	.	.
.	.	.	.	.	.	.	.	.	4b\	.	.
!	!	!	!	!	!	!LO:SIC:v:t=custos A	!	!	!	!	!
1D	ucz-	ucz-	1F	ucz-	ucz-	1A	-ci-	-ci-	2a\	ucz-	.
!	!	!	!	!	!	!LO:LB:g=original	!	!	!	!	!
.	.	.	.	.	.	.	.	.	1dd\	-ći-	ucz-
=13-	=13-	=13-	=13-	=13-	=13-	=13-	=13-	=13-	=13-	=13-	=13-
*	*	*	*	*	*	*xywh-#5:2716,1542,1925,524	*	*	*	*	*
!	!	!	!LO:SIC:v:t=custos D	!	!	!	!	!	!	!	!
1AA	-ci-	-ci-	1E	-ci-	-ci-	1A	-li/	-li	.	.	.
.	.	.	.	.	.	.	.	.	2cc\	.	-ci-
*	*	*	*xywh-#6:831,1555,1867,513	*	*	*	*	*	*	*	*
1D	-li/	-li	1D	-li/	-li	1A	tu	tu	1dd	-li/	-li
!	!	!	!LO:LB:g=original	!	!	!	!	!	!	!	!
=14-	=14-	=14-	=14-	=14-	=14-	=14-	=14-	=14-	=14-	=14-	=14-
2AA/	tu	tu	1A	tu	tu	1e	wo-	wo-	1cc	tu	tu
2.AA/	wo-	wo-	.	.	.	.	.	.	.	.	.
.	.	.	1c	wo-	wo-	1e	-la	-la	1a	wo-	wo-
4BB/	.	.	.	.	.	.	.	.	.	.	.
4C/	-la	-la	.	.	.	.	.	.	.	.	.
4D/	.	.	.	.	.	.	.	.	.	.	.
=15-	=15-	=15-	=15-	=15-	=15-	=15-	=15-	=15-	=15-	=15-	=15-
1E	ie-	Je-	1B	-la	-la	1e	ie-	Je-	1g	-la	-la
2AA/	-go	-go	1A	ie-	Je-	1e	-go	-go	1cc	ie-	Je-
!LO:SIC:v:t=custos E	!	!	!	!	!	!	!	!	!	!	!
2AA/	.	.	.	.	.	.	.	.	.	.	.
!LO:LB:g=original	!	!	!	!	!	!	!	!	!	!	!
=16-	=16-	=16-	=16-	=16-	=16-	=16-	=16-	=16-	=16-	=16-	=16-
*xywh-#6:2771,2044,1879,518	*	*	*	*	*	*	*	*	*	*	*
!	!	!	!	!	!	!	!	!	!LO:SIC:v:t=custos b	!	!
1E	czy-	czy-	1G	-go	-go	2.e\	czy-	czy-	2b\	-go	-go
!	!	!	!	!	!	!	!	!	!LO:LB:g=original	!	!
*	*	*	*	*	*	*	*	*	*xywh-#5:727,2073,1925,513	*	*
.	.	.	.	.	.	.	.	.	2.b\	czy-	czy-
.	.	.	.	.	.	4d\	.	.	.	.	.
1F	-ni-	-ni-	1A	peł-	[czy]-	2c\	.	.	.	.	.
.	.	.	.	.	.	.	.	.	4a\	.	.
.	.	.	.	.	.	2d\	-ni-	.	1a\	-ni-	-ni-
=17-	=17-	=17-	=17-	=17-	=17-	=17-	=17-	=17-	=17-	=17-	=17-
1E	-li/	-li	1B	-ni-	-ni-	1e	-li/	-ni-	.	.	.
.	.	.	.	.	.	.	.	.	2g/	.	.
1AA	po-	po-	1A	-li/	-li	1c	.	-li	1a	-li/	-li
=18-	=18-	=18-	=18-	=18-	=18-	=18-	=18-	=18-	=18-	=18-	=18-
!	!	!	!LO:T:dash	!	!	!	!	!	!LO:T:dash	!	!
!	!	!	!LO:MO:mod=[1c	!	!	!	!	!	!LO:MO:mod=[1a	!	!
0A	-tym	-tym	0c	po-	po-	1.e	po-	po-	0a	po-	po-
!	!	!	!LO:MO:null:mod=1c]	!	!	!LO:SIC:v:t=custos g	!	!	!LO:MO:null:mod=1a]	!	!
.	.	.	.	.	-tym	.	.	.	.	.	-tym
.	.	.	.	.	.	2f\	-tym	-tym	.	.	.
!	!	!	!	!	!	!LO:LB:g=original	!	!	!	!	!
=19-	=19-	=19-	=19-	=19-	=19-	=19-	=19-	=19-	=19-	=19-	=19-
*	*	*	*	*	*	*xywh-#5:2710,2044,1856,628	*	*	*	*	*
1G	z nim	z nim	1d	-tym|	z nim	1g	.	z nim	1b	-tym	z nim
!	!	!	!LO:SIC:v:t=custos d	!	!	!	!	!	!	!	!
0C	w kro-	w kró-	0e	z| nim	w kró-	0g	z nim	w kró-	0cc	z nim	w kró-
!	!	!	!LO:LB:g=original	!	!	!	!	!	!	!	!
=20-	=20-	=20-	=20-	=20-	=20-	=20-	=20-	=20-	=20-	=20-	=20-
.	.	.	.	.	.	.	.	.	.	.	.
*	*	*	*xywh-#6:854,2039,1844,530	*	*	*	*	*	*	*	*
1G	-leſ-	-les-	1d	w kro.	-[les-	1g	w kro-	-les-	1b	w kro-	-les-
=21-	=21-	=21-	=21-	=21-	=21-	=21-	=21-	=21-	=21-	=21-	=21-
1E	-twie	-twie	1e	.	-twie	2.g\	-leſ-	-twie	1g	-le-	-twie
.	.	.	.	.	.	4f\	.	.	.	.	.
1A	ży-	ży-	1c	.	ży-	2e\	-twie	ży-	1.cc	-ſtwie	ży-
.	.	.	.	.	.	2f\	ży-	.	.	.	.
=22-	=22-	=22-	=22-	=22-	=22-	=22-	=22-	=22-	=22-	=22-	=22-
!LO:SIC:v:t=custos C	!	!	!	!	!	!	!	!	!	!	!
0G	-li:	-li.	0d	.	-li.]	0g	-li:	-li.	.	.	.
!LO:LB:g=original	!	!	!	!	!	!	!	!	!	!	!
.	.	.	.	.	.	.	.	.	4b\	ży-	.
!	!	!	!	!	!	!	!	!	!LO:SIC:v:t=custos b	!	!
.	.	.	.	.	.	.	.	.	4a\	.	.
!	!	!	!	!	!	!	!	!	!LO:LB:g=original	!	!
*	*	*	*	*	*	*	*	*	*xywh-#5:821,2511,1793,565	*	*
.	.	.	.	.	.	.	.	.	1b	-li.	-li.
=23-	=23-	=23-	=23-	=23-	=23-	=23-	=23-	=23-	=23-	=23-	=23-
*xywh-#6:2759,2501,1862,599	*	*	*	*	*	*	*	*	*	*	*
0C	Zdarz	Zdarz	0c	Zdarz	Zdarz	0e	Zdarz	Zdarz	0cc	Zdarz	Zdarz
=24-	=24-	=24-	=24-	=24-	=24-	=24-	=24-	=24-	=24-	=24-	=24-
1C	to	to	1e	to	to	1g	to	to	1cc	to	to
1C	nam	nam	1e	nam.	nam	1g	nam	nam	1cc	nam	nam
=25-	=25-	=25-	=25-	=25-	=25-	=25-	=25-	=25-	=25-	=25-	=25-
1G	n.	n[asz]	1d	.	[nasz	1g	naſz.	nasz	1b	naſz	nasz
1A	p.	P[a-	1c	.	Pa-	1e	.	.	1.a	pa-	Pa-
=26-	=26-	=26-	=26-	=26-	=26-	=26-	=26-	=26-	=26-	=26-	=26-
0E	.	.	0B	.	.	0e	.	[Pa-	.	.	.
.	.	.	.	.	.	.	.	.	4g/	.	.
.	.	.	.	.	.	.	.	.	4f/	.	.
.	.	.	.	.	.	.	.	.	1g	-nie.	.
=27-	=27-	=27-	=27-	=27-	=27-	=27-	=27-	=27-	=27-	=27-	=27-
0Cl	.	-nie.]	0Al	.	-nie.]	0el	.	-nie.]	0al	.	-nie.
==	==	==	==	==	==	==	==	==	==	==	==
*-	*-	*-	*-	*-	*-	*-	*-	*-	*-	*-	*-
!!!system-decoration: [(*)]
!!!RDF**kern: > = above
!!!RDF**kern: < = below
!!LO:MO:ori
!!!RDF**kern: l = terminal long
!!LO:MO:end
!!!filter-modern: sic -sq | shed -e "s/TX(.*):t=P:/tx$1:t=P:/LG" | shed -k -e "s/LO:N:vis/LO:n:vis:/L" | shed -e "s/^(\d+[\/\\]right)/$1yy/I;s/^(\d+[\/\\]left)/$1yy/I" | shed -e "s/-//B" | shed -e "s/^custos:/Xcustos:/I" | shed -k -e "s/LO:N:acc/LO:n:acc:/L" | autostem -r | tie -s | humtr -p | modori -m
!!!ENC: Mateusz Solarz
!!!END: 2022-04-26
!!!EED: Wojciech Jakubiak-Danek
!!!EEV: 2022-05-09
!!!ENC-modern: Andrzej Borzym
!!!END-modern: 2022-07-23
!!!ENC-iiif: Emilia Ziętek
!!!END-iiif: 2022-09-02
!!!YEC: Copyright 2022 Narodowy Instytut Fryderyka Chopina (https://polishscores.org)
!!!YEM: License CC-BY-4.0 (https://creativecommons.org/licenses/by/4.0)
